src/components/Logo/svg/wellcome-logo-medium.svg

<?xml version="1.0" encoding="UTF-8"?>
<svg width="60px" height="60px" viewBox="0 0 60 60" version="1.1" xmlns="http://www.w3.org/2000/svg" xmlns:xlink="http://www.w3.org/1999/xlink">
    <!-- Generator: Sketch 54.1 (76490) - https://sketchapp.com -->
    <g stroke="none" strokeWidth="1" fill="none" fillRule="evenodd">
        <path d="M0,0 L60,0 L60,60 L0,60 L0,0 Z M44.0459341,47.4118681 L52.0417582,17.0096703 L42.4513187,15.9553846 L38.1850549,32.1636264 C36.5594505,25.9813187 35.0693407,20.3943956 34.8168132,19.4746154 C34.166044,17.0993407 32.5842857,15.9583516 30.2521978,15.9583516 C27.7265934,15.9583516 25.9008791,15.9553846 25.9008791,15.9553846 C25.8886813,15.9553846 25.8804396,15.9553846 25.8804396,15.9553846 L21.6112088,32.1768132 L17.341978,15.9553846 L7.7667033,17.0683516 C7.7667033,17.0683516 13.0259341,37.0918681 13.9872527,40.7254945 C14.6020879,43.050989 15.8343956,44.6238462 18.1846154,45.2614286 C20.6156044,45.9217582 25.6206593,47.4118681 25.6206593,47.4118681 L29.8974725,31.1449451 C31.1940659,36.0745055 32.1867033,39.6982418 32.5753846,41.1220879 C33.1552747,43.2497802 34.5534066,44.6043956 36.9850549,45.3197802 C40.2735165,46.2867033 44.0459341,47.4118681 44.0459341,47.4118681 Z" id="Combined-Shape" fill="#D8D8D8"></path>
    </g>
</svg>

<svg width="60" height="60" xmlns="http://www.w3.org/2000/svg"><path d="M0 0h60v60H0V0zm44.046 47.412l7.996-30.402-9.59-1.055-4.267 16.209a2252.888 2252.888 0 00-3.368-12.69c-.651-2.375-2.233-3.516-4.565-3.516-2.525 0-4.351-.003-4.351-.003h-.02l-4.27 16.222-4.269-16.222-9.575 1.113s5.259 20.024 6.22 23.657c.615 2.326 1.847 3.899 4.198 4.536 2.43.66 7.436 2.15 7.436 2.15l4.276-16.266c1.297 4.93 2.29 8.553 2.678 9.977.58 2.128 1.978 3.482 4.41 4.198 3.289.967 7.06 2.092 7.06 2.092z" fill="#D8D8D8"/></svg>
